X:1
T:Title
%%score { ( 1 4 ) | ( 2 3 ) }
L:1/8
M:4/4
K:F
V:1 treble nm="Grand Piano"
V:4 treble 
V:2 bass 
V:3 bass 
V:1
 z4 z2[Q:1/4=100] F2 | c2 dc [Fc]2 [CEB]2 | [CEB]2 [CFA]2 z2 [CF]2 | [DFG]3 [Fd] .[Ec]2 [CA]G | %4
 [B,EG]2 F2 z2 F2 | c2 dc [Fc]2 [CEB]2 | [CEB]2 [CFA]2 z2 [CF]2 | [DFG]3 [Fd] .[Ec]2 [CA]G | %8
 [B,EG]2 F2 z2 [CGc]2 | [CEG]3 [CEB] [CGB]2 [CFA]2 | [CFA]2 [CEG]2 z2 [CGc]2 | %11
 [CEG]3 [CEB] [CGB]2 [CFA]2 | [CFA]2 [CEG]2 z2 [CF]2 | [DFG]3 [DFG] [EG]2 [FA][GB] | %14
 [GB]2 A2 z2 [CF]2 | [DFG]3 [Fd] .[Ec]2 [CA]G |[M:7/4] [B,EG]2 F2 z2 z2 z2 z4 | %17
[M:4/4] [B,DF]4 [A,CF]4 |] %18
V:2
 z4 z2 [F,A,]2 | z2 [F,F]2 z4 | F,2 F,2 z2 A,,2 | B,,3 [B,,B,] z[K:treble] B[K:bass] z B, | %4
 z2 A,2 z2 [F,A,]2 | z2 .B,2 z4 | F,2 F,2 z2 A,,2 | B,,3 [B,,B,] z[K:treble] B[K:bass] z B, | %8
 z2 A,2 z2 E,2 | C,3 C, E,2 F,2 | C,2 C,2 z2 E,2 | C,3 C, E,2 F,2 | C,2 C,2 z2 A,,2 | %13
 B,,3 B,, [C,C]2 [C,C]2 | [F,C]4[K:treble] z4[K:bass] | B,,3 [B,,B,] z[K:treble] B[K:bass] z B, | %16
[M:7/4] z2 A,2 z2 z2 z2 z4 |[M:4/4] B,,4 F,4 |] %18
V:3
 x8 | [F,A,F]2 B,A, [C,A,]2 C,2 | x8 | z4 [C,G,]2[K:treble][K:bass] C,2 | F,4 z4 | %5
 [F,A,F]2 [F,F]-[F,A,F] [C,A,]2 C,2 | x8 | z4 [C,G,]2[K:treble][K:bass] C,2 | F,4 z4 | x8 | x8 | %11
 x8 | x8 | x8 | z2[K:treble] F2 z2[K:bass] A,,2 | z4 [C,G,]2[K:treble][K:bass] C,2 | %16
[M:7/4] F,4 z2 z2 z2 z4 |[M:4/4] x8 |] %18
V:4
 x8 | x8 | x8 | z4 z2 E2 | x8 | x8 | x8 | z4 z2 E2 | x8 | x8 | x8 | x8 | x8 | x8 | x8 | z4 z2 E2 | %16
[M:7/4] x14 |[M:4/4] x8 |] %18

